static/img/device/component-cable-tie6.svg

<svg xmlns="http://www.w3.org/2000/svg" width="465" height="75" fill="none" viewBox="0 0 465 75"><g clip-path="url(#a)"><path fill="#fff" d="M437.21 5.48H15.5s-4.75 5.64 0 10.4h421.7"/><path stroke="#231815" stroke-miterlimit="10" stroke-width=".85" d="M437.21 5.48H15.5s-4.75 5.64 0 10.4h421.7"/><path fill="#fff" stroke="#231815" stroke-miterlimit="10" stroke-width=".85" d="M441.39.42h14.79c1.09 0 1.97.88 1.97 1.97v16.56c0 1.09-.88 1.97-1.97 1.97h-14.79a3.74 3.74 0 0 1-3.74-3.74V4.16a3.74 3.74 0 0 1 3.74-3.74Z"/><path fill="#fff" stroke="#231815" stroke-miterlimit="10" stroke-width=".85" d="M446.4 4.26h-4.99v12.83h4.99z"/><path fill="#fff" d="M443.27 15.42H21.56s-4.75 5.64 0 10.4h421.7"/><path stroke="#231815" stroke-miterlimit="10" stroke-width=".85" d="M443.27 15.42H21.56s-4.75 5.64 0 10.4h421.7"/><path fill="#fff" stroke="#231815" stroke-miterlimit="10" stroke-width=".85" d="M447.45 10.37h14.79c1.09 0 1.97.88 1.97 1.97V28.9c0 1.09-.88 1.97-1.97 1.97h-14.79a3.74 3.74 0 0 1-3.74-3.74V14.11a3.74 3.74 0 0 1 3.74-3.74Z"/><path fill="#fff" stroke="#231815" stroke-miterlimit="10" stroke-width=".85" d="M452.46 14.2h-4.99v12.83h4.99z"/><path fill="#fff" d="M443.27 29H21.56s-4.75 5.64 0 10.4h421.7"/><path stroke="#231815" stroke-miterlimit="10" stroke-width=".85" d="M443.27 29H21.56s-4.75 5.64 0 10.4h421.7"/><path fill="#fff" stroke="#231815" stroke-miterlimit="10" stroke-width=".85" d="M447.45 23.95h14.79c1.09 0 1.97.88 1.97 1.97v16.56c0 1.09-.88 1.97-1.97 1.97h-14.79a3.74 3.74 0 0 1-3.74-3.74V27.69a3.74 3.74 0 0 1 3.74-3.74Z"/><path fill="#fff" stroke="#231815" stroke-miterlimit="10" stroke-width=".85" d="M452.46 27.78h-4.99v12.83h4.99z"/><path fill="#fff" d="M443.27 52.53H21.56s-4.75 5.64 0 10.4h421.7"/><path stroke="#231815" stroke-miterlimit="10" stroke-width=".85" d="M443.27 52.53H21.56s-4.75 5.64 0 10.4h421.7"/><path fill="#fff" stroke="#231815" stroke-miterlimit="10" stroke-width=".85" d="M447.45 47.47h14.79c1.09 0 1.97.88 1.97 1.97V66c0 1.09-.88 1.97-1.97 1.97h-14.79a3.74 3.74 0 0 1-3.74-3.74V51.21a3.74 3.74 0 0 1 3.74-3.74Z"/><path fill="#fff" stroke="#231815" stroke-miterlimit="10" stroke-width=".85" d="M452.46 51.31h-4.99v12.83h4.99z"/><path fill="#fff" d="M432.79 42.28H11.09s-4.75 5.64 0 10.4h421.7"/><path stroke="#231815" stroke-miterlimit="10" stroke-width=".85" d="M432.79 42.28H11.09s-4.75 5.64 0 10.4h421.7"/><path fill="#fff" stroke="#231815" stroke-miterlimit="10" stroke-width=".85" d="M436.98 37.22h14.79c1.09 0 1.97.88 1.97 1.97v16.56c0 1.09-.88 1.97-1.97 1.97h-14.79a3.74 3.74 0 0 1-3.74-3.74V40.96a3.74 3.74 0 0 1 3.74-3.74Z"/><path fill="#fff" stroke="#231815" stroke-miterlimit="10" stroke-width=".85" d="M441.99 41.06H437v12.83h4.99z"/><path fill="#fff" d="M424.24 58.94H2.54s-4.75 5.64 0 10.4h421.7"/><path stroke="#231815" stroke-miterlimit="10" stroke-width=".85" d="M424.24 58.94H2.54s-4.75 5.64 0 10.4h421.7"/><path fill="#fff" stroke="#231815" stroke-miterlimit="10" stroke-width=".85" d="M428.42 53.89h14.79c1.09 0 1.97.88 1.97 1.97v16.56c0 1.09-.88 1.97-1.97 1.97h-14.79a3.74 3.74 0 0 1-3.74-3.74V57.63a3.74 3.74 0 0 1 3.74-3.74Z"/><path fill="#fff" stroke="#231815" stroke-miterlimit="10" stroke-width=".85" d="M433.44 57.72h-4.99v12.83h4.99z"/></g><defs><clipPath id="a"><path fill="#fff" d="M0 0h464.64v74.81H0z"/></clipPath></defs></svg>

<svg width="465" height="75" viewBox="0 0 465 75" fill="none" xmlns="http://www.w3.org/2000/svg">
<g clip-path="url(#clip0_784_38124)">
<path d="M437.21 5.48001H15.5C15.5 5.48001 10.75 11.12 15.5 15.88H437.2" fill="white"/>
<path d="M437.21 5.48001H15.5C15.5 5.48001 10.75 11.12 15.5 15.88H437.2" stroke="#231815" stroke-width="0.85" stroke-miterlimit="10"/>
<path d="M441.39 0.420013H456.18C457.27 0.420013 458.15 1.30001 458.15 2.39001V18.95C458.15 20.04 457.27 20.92 456.18 20.92H441.39C439.33 20.92 437.65 19.25 437.65 17.18V4.16001C437.65 2.10001 439.32 0.420013 441.39 0.420013Z" fill="white" stroke="#231815" stroke-width="0.85" stroke-miterlimit="10"/>
<path d="M446.4 4.26001H441.41V17.09H446.4V4.26001Z" fill="white" stroke="#231815" stroke-width="0.85" stroke-miterlimit="10"/>
<path d="M443.27 15.42H21.56C21.56 15.42 16.81 21.06 21.56 25.82H443.26" fill="white"/>
<path d="M443.27 15.42H21.56C21.56 15.42 16.81 21.06 21.56 25.82H443.26" stroke="#231815" stroke-width="0.85" stroke-miterlimit="10"/>
<path d="M447.45 10.37H462.24C463.33 10.37 464.21 11.25 464.21 12.34V28.9C464.21 29.99 463.33 30.87 462.24 30.87H447.45C445.39 30.87 443.71 29.2 443.71 27.13V14.11C443.71 12.05 445.38 10.37 447.45 10.37Z" fill="white" stroke="#231815" stroke-width="0.85" stroke-miterlimit="10"/>
<path d="M452.46 14.2H447.47V27.03H452.46V14.2Z" fill="white" stroke="#231815" stroke-width="0.85" stroke-miterlimit="10"/>
<path d="M443.27 29H21.56C21.56 29 16.81 34.64 21.56 39.4H443.26" fill="white"/>
<path d="M443.27 29H21.56C21.56 29 16.81 34.64 21.56 39.4H443.26" stroke="#231815" stroke-width="0.85" stroke-miterlimit="10"/>
<path d="M447.45 23.95H462.24C463.33 23.95 464.21 24.83 464.21 25.92V42.48C464.21 43.57 463.33 44.45 462.24 44.45H447.45C445.39 44.45 443.71 42.78 443.71 40.71V27.69C443.71 25.63 445.38 23.95 447.45 23.95Z" fill="white" stroke="#231815" stroke-width="0.85" stroke-miterlimit="10"/>
<path d="M452.46 27.78H447.47V40.61H452.46V27.78Z" fill="white" stroke="#231815" stroke-width="0.85" stroke-miterlimit="10"/>
<path d="M443.27 52.53H21.56C21.56 52.53 16.81 58.17 21.56 62.93H443.26" fill="white"/>
<path d="M443.27 52.53H21.56C21.56 52.53 16.81 58.17 21.56 62.93H443.26" stroke="#231815" stroke-width="0.85" stroke-miterlimit="10"/>
<path d="M447.45 47.47H462.24C463.33 47.47 464.21 48.35 464.21 49.44V66C464.21 67.09 463.33 67.97 462.24 67.97H447.45C445.39 67.97 443.71 66.3 443.71 64.23V51.21C443.71 49.15 445.38 47.47 447.45 47.47Z" fill="white" stroke="#231815" stroke-width="0.85" stroke-miterlimit="10"/>
<path d="M452.46 51.31H447.47V64.14H452.46V51.31Z" fill="white" stroke="#231815" stroke-width="0.85" stroke-miterlimit="10"/>
<path d="M432.79 42.28H11.09C11.09 42.28 6.33999 47.92 11.09 52.68H432.79" fill="white"/>
<path d="M432.79 42.28H11.09C11.09 42.28 6.33999 47.92 11.09 52.68H432.79" stroke="#231815" stroke-width="0.85" stroke-miterlimit="10"/>
<path d="M436.98 37.22H451.77C452.86 37.22 453.74 38.1 453.74 39.19V55.75C453.74 56.84 452.86 57.72 451.77 57.72H436.98C434.92 57.72 433.24 56.05 433.24 53.98V40.96C433.24 38.9 434.91 37.22 436.98 37.22Z" fill="white" stroke="#231815" stroke-width="0.85" stroke-miterlimit="10"/>
<path d="M441.99 41.06H437V53.89H441.99V41.06Z" fill="white" stroke="#231815" stroke-width="0.85" stroke-miterlimit="10"/>
<path d="M424.24 58.94H2.54001C2.54001 58.94 -2.20999 64.58 2.54001 69.34H424.24" fill="white"/>
<path d="M424.24 58.94H2.54001C2.54001 58.94 -2.20999 64.58 2.54001 69.34H424.24" stroke="#231815" stroke-width="0.85" stroke-miterlimit="10"/>
<path d="M428.42 53.89H443.21C444.3 53.89 445.18 54.77 445.18 55.86V72.42C445.18 73.51 444.3 74.39 443.21 74.39H428.42C426.36 74.39 424.68 72.72 424.68 70.65V57.63C424.68 55.57 426.35 53.89 428.42 53.89Z" fill="white" stroke="#231815" stroke-width="0.85" stroke-miterlimit="10"/>
<path d="M433.44 57.72H428.45V70.55H433.44V57.72Z" fill="white" stroke="#231815" stroke-width="0.85" stroke-miterlimit="10"/>
</g>
<defs>
<clipPath id="clip0_784_38124">
<rect width="464.64" height="74.81" fill="white"/>
</clipPath>
</defs>
</svg>
